X:1
T:Bimini
M:2/4
L:1/8
K:F
 c4-| c2 GA| B3/2 G/2- GF| E3/2 E/2 C z| FF FF| GG AB| A3/2 A/2- AE|\
 G3/2 G/2 F z|

